X:1
T:Will There Be Any Stars?
T:Will There Be Any Stars?
T:John Robson Sweney
T:Eliza Edmunds Stites Hewitt, 1897
T:Public Domain Courtesy of the Cyber Hymnal™
T:Public Domain Courtesy of the Cyber Hymnal™
C:John Robson Sweney
Z:Public Domain
Z:Courtesy of the Cyber Hymnal™
%%score ( 1 2 ) ( 3 4 )
L:1/8
Q:1/4=103
M:4/4
K:Bb
V:1 treble 
V:2 treble 
V:3 bass 
V:4 bass 
V:1
 [B,D][CE] | [DF]2 [_D=E][=DF] [DB]2 [Fd]>[E_d] | [DB]2 [EA][DB] C2 C[=B,D] | %3
w: 1.~I am|think- ing to- day of that|beau- ti- ful land I shall|
w: 2.~In the|strength of the Lord let me|la- bor and pray, Let me|
w: 3.~O what|joy it will be when His|face I be- hold, Liv- ing|
 [CE]2 [EA][EG] [CF]2 [CE][A,F] | [B,D]6 [B,D][CE] | [DF]2 [_D=E][=DF] [DB]2 [Fd]>[E_d] | %6
w: reach when the sun goe- th|down; When through|won- der- ful grace by my|
w: watch as a win- ner of|souls, That bright|stars may be mine in the|
w: gems at His feet to lay|down! It would|sweet- en my bliss in the|
 [DB]2 [EA][DB] C2 C[=B,D] [CE]2 [EA][EG] [EF]2 [Ec][Fd] | [DB]6 ||"^Refrain" [Fd]>[Ec] | %9
w: Sav- ior I stand, Will there be an- y stars in my|crown?||
w: glor- i- ous day, When His praise like the sea bil- low|rolls.|Will there|
w: ci- ty of gold, Should there be an- y stars in my|crown.||
 [DB]2 [Ec]>[DB] [DF]2 D>F | B2 [FB][Fc] [Fd]2 [Fd][Fe] | [Ff]2 [Bd][Ac] B2 [Ac][Bd] | %12
w: |||
w: be an- y stars, an- y|stars in my crown When at|even- ing the sun go- eth|
w: |||
 c4- [Ac]2 [Ae][Ae] | [Fd]2 [DB][DB] [Fd]2 [Fd][Fc] | [GB]2 [EG][EG] [GB]2 [_DA][DG] | %15
w: |||
w: down? When I wake|* with the blest in the|man- sions of rest Will there|
w: |||
 [DF]2 [FB][FB] [EA]2 [Ec][Fd] | B4- [DB]2 |] %17
w: ||
w: be an- y stars in my|crown? *|
w: ||
V:2
 x2 | x8 | x4 C2 C x | x8 | x8 | x8 | x16 | x6 || x2 | x6 D>F | B2 x6 | x4 B2 x2 | A2 GG x4 | x8 | %14
 x8 | x8 | D2 FE x2 |] %17
V:3
 [B,,F,][B,,F,] | [B,,B,]2 [B,,B,][B,,B,] [B,,F,]2 [B,,F,]>[B,,F,] | %2
 [B,,F,]2 [C,F,][D,F,] [E,G,]2 [E,G,][D,G,] | [C,G,]2 F,[F,B,] [F,A,]2 [F,A,]F, | %4
 [B,,F,]6 [B,,F,][B,,F,] | [B,,B,]2 [B,,B,][B,,B,] [B,,F,]2 [B,,F,]>[B,,F,] | %6
 [B,,F,]2 [C,F,][D,F,] [E,G,]2 [E,G,][D,G,] [C,G,]2 F,[F,B,] [F,A,]2 [F,A,][F,A,] | [B,,B,]6 || %8
 [B,,B,]>[B,,F,] | [B,,F,]2 [B,,F,]>[B,,F,] .[B,,B,]2 D,>F, | B,2 [D,B,][F,A,] B,2 B,[B,C] | %11
 [B,D]2 [B,F][CF] [DF]2 [CF][B,F] | ([F,F]2 [C,=E][C,E] [F,F]2) [F,C][F,C] | %13
 [B,,B,]2 [B,,F,][B,,F,] [B,,B,]2 [D,B,][D,B,] | [E,B,]2 [E,B,][E,B,] [E,E]2 [=E,B,][E,B,] | %15
 [F,B,]2 [F,D][F,D] [F,C]2 [F,A,][F,A,] | (B,2 A,G, [B,,F,]2) |] %17
V:4
 x2 | x8 | x8 | x2 F, x3 F, x | x8 | x8 | x10 F, x5 | x6 || x2 | x6 D,3/2 x/ | B,2 B,2 B, x3 | x8 | %12
 x8 | x8 | x8 | x8 | B,,4- x2 |] %17

